assets/images/avatar/Avatar 01.svg

<svg fill="none" height="128" viewBox="0 0 128 128" width="128" xmlns="http://www.w3.org/2000/svg" xmlns:xlink="http://www.w3.org/1999/xlink"><mask id="a" height="121" maskUnits="userSpaceOnUse" width="109" x="9" y="3"><path clip-rule="evenodd" d="m64.4064 4.0228c16.6589-.77943 33.2237 5.9442 43.5986 19.0306 10.354 13.0603 11.426 30.3473 8.577 46.7824-3.099 17.8793-8.962 36.3172-24.5741 45.5082-16.9992 10.008-38.8889 11.525-56.1795 2.032-16.4719-9.043-23.6861-28.3332-25.7946-47.0378-1.81327-16.0852 5.342-30.9241 15.5962-43.4306 10.0194-12.2201 23.0123-22.14723 38.7764-22.8848z" fill="#eff6f7" fill-rule="evenodd"/></mask><g mask="url(#a)"><path clip-rule="evenodd" d="m64.4064 4.0228c16.6589-.77943 33.2237 5.9442 43.5986 19.0306 10.354 13.0603 11.426 30.3473 8.577 46.7824-3.099 17.8793-8.962 36.3172-24.5741 45.5082-16.9992 10.008-38.8889 11.525-56.1795 2.032-16.4719-9.043-23.6861-28.3332-25.7946-47.0378-1.81327-16.0852 5.342-30.9241 15.5962-43.4306 10.0194-12.2201 23.0123-22.14723 38.7764-22.8848z" fill="#eff6f7" fill-rule="evenodd"/><path d="m90.8526 21.4796c3.4926 3.1543 6.0343 7.3692 5.2572 18.3772-.5242 7.4118 2.7429 14.72 4.0742 21.9002 1.561 8.3901.509 16.5546-5.8632 22.7322-8.8868 8.6186-23.3264 9.3318-31.2259-1.1216-12.3306-16.3169.9143-33.8834 6.4-41.8773 3.3524-4.8762 6.5158-12.9097 7.5368-18.8952 1.0148-5.949 9.9017-4.6568 13.8209-1.1155z" fill="#8a94af"/><path d="m78.1989 19.9192c1.1977.5852 2.051 1.6823 3.1055 2.493.6522.5029 1.3867.9143 2.0084 1.4385.6454.594 1.163 1.3132 1.5214 2.1138.3584.8007.55 1.6659.5632 2.5429.0162 1.7606-.4599 3.4906-1.3745 4.9951-.4145.7161-1.021 1.4537-1.8438 1.4872-.49-.0263-.9642-.1819-1.3745-.451-3.0872-1.6732-10.2522-4.7817-11.328-8.5059-1.1489-3.9711 5.4552-7.7075 8.7223-6.1136z" fill="#f2d6f6"/><path d="m90.6973 40.4328c-1.341-6.525-6.4-10.8282-11.1757-13.3791-13.4674-7.1741-23.7409-1.4689-28.7116.637-2.7428 1.1672-8.1402.1798-11.776 4.7847-2.0266 2.5722-2.0205 8.3079 2.3741 9.8591 1.0088.3566-2.1973 5.3486-.8442 16.3718.637 5.1809 4.029 10.7428 7.7532 14.4731 2.4228 2.4381 4.0624 3.8126 7.4575 4.1631 3.0476.3047 5.4857 2.1059 8.5059 1.5939 7.2533-1.2191 14.2049-1.5665 18.6179-11.9589 1.923-4.5257 10.5509-13.1504 7.7989-26.5447z" fill="#8a94af"/><path d="m74.2462 66.8343c0 8.5333-5.0194 18.0724 2.5783 25.0941 4.4007 4.0655 12.4312 4.4678 18.7428 6.6682 10.0057 3.4834 14.1257 14.7904 16.1767 25.0334h-99.1786c2.2431-8.229 6.589-16.265 12.5349-21.398 5.6655-4.8758 14.6286-4.8758 20.3581-11.3459 3.1238-3.5261 2.9775-14.6621 1.5238-27.3859-1.2587-11.008 27.264-11.4956 27.264 3.3341z" fill="#e7baef"/><path d="m111.744 124.026-99.1786-.031c2.237-8.228 6.592-16.643 12.5349-21.778 5.0042-4.3183 12.5927-4.8181 18.2369-9.3377.7589 6.1897 8.7467 9.7527 13.1261 10.1057 8.4267.64 16.8534-2.743 21.2907-10.2947 4.547 3.3524 11.9314 3.8339 17.8133 5.8941 10.0027 3.4926 14.1167 15.2016 16.1767 25.4416z" fill="#f9f3fa"/><path d="m51.261 124.014h-40.4144c2.2369-8.229 6.5249-17.808 14.3512-22.513 5.7905-3.4743 10.8891-4.6172 16.0213-7.1436 2.3558 4.3428 7.3204 15.8506 10.0419 29.6566z" fill="#774985"/><path d="m114.947 124.026h-50.5386c2.8922-8.229 12.8732-26.426 15.9025-29.8484 4.4617 2.0967 10.3193 2.9104 15.2564 4.4281 12.4277 3.8123 17.3197 15.1803 19.3797 25.4203z" fill="#774985"/><path d="m47.4424 67.9193c.9143 9.5817.9539 17.8316-1.0697 21.6594 6.1745 3.8552 18.7154 3.0171 26.2887-6.6012-.3291-5.1809 1.5665-10.819 1.5818-16.0731-8.4389.5059-17.9871.7101-26.8008 1.0149z" fill="#353154" opacity=".2"/><g fill="#e7baef"><path d="m78.2782 60.0503c-1.0545-.9143-.6278-5.6107-.5181-8.0244.1069-2.4143-.7492-4.7722-2.3802-6.5554-3.5017-3.7516-7.8689-2.6636-12.2971-1.8286-3.3798.637-7.1711.9296-10.4534-.1645-3.584-1.1947-6.4365-1.6519-8.7253-.8077-1.0301 3.1817-1.9291 6.3391-2.307 10.4259-.3048 3.2975.9783 5.7417.4205 8.9813-.6582 3.8279-.5638 5.4522.4419 8.4267 1.2953 3.8278 3.2396 7.4515 5.4857 10.0816 3.1635 3.7211 6.1166 5.8453 12.2088 4.5257 4.6324-1.0057 8.6065-3.4896 11.7486-7.1284 1.347-1.5604 2.7824-4.7634 3.7577-6.5158 1.2708-2.2796 1.6335-2.816 2.3893-5.3242.5638-1.9139.7619-5.635.2286-6.0922z"/><path d="m76.2516 62.0769c.0213-.0975.9509-1.475 1.3257-2.0388.7284-1.0911 2.8434-2.7429 4.3489-.9722 1.1825 1.3806-.1615 4.7055-1.923 7.5977-1.6366 2.688-4.6903 4.7452-5.2815 4.8092s1.2617-8.186 1.5299-9.3959z"/></g></g></svg>

<svg width="128" height="128" viewBox="0 0 128 128" fill="none" xmlns="http://www.w3.org/2000/svg">
<mask id="mask0_457_1656" style="mask-type:alpha" maskUnits="userSpaceOnUse" x="9" y="3" width="109" height="121">
<path fill-rule="evenodd" clip-rule="evenodd" d="M64.4064 4.0228C81.0653 3.24337 97.6301 9.967 108.005 23.0534C118.359 36.1137 119.431 53.4007 116.582 69.8358C113.483 87.7151 107.62 106.153 92.0079 115.344C75.0087 125.352 53.119 126.869 35.8284 117.376C19.3565 108.333 12.1423 89.0428 10.0338 70.3382C8.22053 54.253 15.3758 39.4141 25.63 26.9076C35.6494 14.6875 48.6423 4.76037 64.4064 4.0228Z" fill="#EFF6F7"/>
</mask>
<g mask="url(#mask0_457_1656)">
<path fill-rule="evenodd" clip-rule="evenodd" d="M64.4064 4.0228C81.0653 3.24337 97.6301 9.967 108.005 23.0534C118.359 36.1137 119.431 53.4007 116.582 69.8358C113.483 87.7151 107.62 106.153 92.0079 115.344C75.0087 125.352 53.119 126.869 35.8284 117.376C19.3565 108.333 12.1423 89.0428 10.0338 70.3382C8.22053 54.253 15.3758 39.4141 25.63 26.9076C35.6494 14.6875 48.6423 4.76037 64.4064 4.0228Z" fill="#EFF6F7"/>
<path d="M90.8526 21.4796C94.3452 24.6339 96.8869 28.8488 96.1098 39.8568C95.5856 47.2686 98.8527 54.5768 100.184 61.757C101.745 70.1471 100.693 78.3116 94.3208 84.4892C85.434 93.1078 70.9944 93.821 63.0949 83.3676C50.7643 67.0507 64.0092 49.4842 69.4949 41.4903C72.8473 36.6141 76.0107 28.5806 77.0317 22.5951C78.0465 16.6461 86.9334 17.9383 90.8526 21.4796Z" fill="#8A94AF"/>
<path d="M78.1989 19.9192C79.3966 20.5044 80.2499 21.6015 81.3044 22.4122C81.9566 22.9151 82.6911 23.3265 83.3128 23.8507C83.9582 24.4447 84.4758 25.1639 84.8342 25.9645C85.1926 26.7652 85.3842 27.6304 85.3974 28.5074C85.4136 30.268 84.9375 31.998 84.0229 33.5025C83.6084 34.2186 83.0019 34.9562 82.1791 34.9897C81.6891 34.9634 81.2149 34.8078 80.8046 34.5387C77.7174 32.8655 70.5524 29.757 69.4766 26.0328C68.3277 22.0617 74.9318 18.3253 78.1989 19.9192Z" fill="#F2D6F6"/>
<path d="M90.6973 40.4328C89.3563 33.9078 84.2973 29.6046 79.5216 27.0537C66.0542 19.8796 55.7807 25.5848 50.81 27.6907C48.0672 28.8579 42.6698 27.8705 39.034 32.4754C37.0074 35.0476 37.0135 40.7833 41.4081 42.3345C42.4169 42.6911 39.2108 47.6831 40.5639 58.7063C41.2009 63.8872 44.5929 69.4491 48.3171 73.1794C50.7399 75.6175 52.3795 76.992 55.7746 77.3425C58.8222 77.6472 61.2603 79.4484 64.2805 78.9364C71.5338 77.7173 78.4854 77.3699 82.8984 66.9775C84.8214 62.4518 93.4493 53.8271 90.6973 40.4328Z" fill="#8A94AF"/>
<path d="M74.2462 66.8343C74.2462 75.3676 69.2268 84.9067 76.8245 91.9284C81.2252 95.9939 89.2557 96.3962 95.5673 98.5966C105.573 102.08 109.693 113.387 111.744 123.63H12.5654C14.8085 115.401 19.1544 107.365 25.1003 102.232C30.7658 97.3562 39.7289 97.3562 45.4584 90.8861C48.5822 87.36 48.4359 76.224 46.9822 63.5002C45.7235 52.4922 74.2462 52.0046 74.2462 66.8343Z" fill="#E7BAEF"/>
<path d="M111.744 124.026L12.5654 123.995C14.8024 115.767 19.1574 107.352 25.1003 102.217C30.1045 97.8987 37.693 97.3989 43.3372 92.8793C44.0961 99.069 52.0839 102.632 56.4633 102.985C64.89 103.625 73.3167 100.242 77.754 92.6903C82.301 96.0427 89.6854 96.5242 95.5673 98.5844C105.57 102.077 109.684 113.786 111.744 124.026Z" fill="#F9F3FA"/>
<path d="M51.261 124.014H10.8466C13.0835 115.785 17.3715 106.206 25.1978 101.501C30.9883 98.0267 36.0869 96.8838 41.2191 94.3574C43.5749 98.7002 48.5395 110.208 51.261 124.014Z" fill="#774985"/>
<path d="M114.947 124.026H64.4084C67.3006 115.797 77.2816 97.6 80.3109 94.1776C84.7726 96.2743 90.6302 97.088 95.5673 98.6057C107.995 102.418 112.887 113.786 114.947 124.026Z" fill="#774985"/>
<g style="mix-blend-mode:multiply" opacity="0.2">
<path d="M47.4424 67.9193C48.3567 77.501 48.3963 85.7509 46.3727 89.5787C52.5472 93.4339 65.0881 92.5958 72.6614 82.9775C72.3323 77.7966 74.2279 72.1585 74.2432 66.9044C65.8043 67.4103 56.2561 67.6145 47.4424 67.9193Z" fill="#353154"/>
</g>
<path d="M78.2782 60.0503C77.2237 59.136 77.6504 54.4396 77.7601 52.0259C77.867 49.6116 77.0109 47.2537 75.3799 45.4705C71.8782 41.7189 67.511 42.8069 63.0828 43.6419C59.703 44.2789 55.9117 44.5715 52.6294 43.4774C49.0454 42.2827 46.1929 41.8255 43.9041 42.6697C42.874 45.8514 41.975 49.0088 41.5971 53.0956C41.2923 56.3931 42.5754 58.8373 42.0176 62.0769C41.3594 65.9048 41.4538 67.5291 42.4595 70.5036C43.7548 74.3314 45.6991 77.9551 47.9452 80.5852C51.1087 84.3063 54.0618 86.4305 60.154 85.1109C64.7864 84.1052 68.7605 81.6213 71.9026 77.9825C73.2496 76.4221 74.685 73.2191 75.6603 71.4667C76.9311 69.1871 77.2938 68.6507 78.0496 66.1425C78.6134 64.2286 78.8115 60.5075 78.2782 60.0503Z" fill="#E7BAEF"/>
<path d="M76.2516 62.0769C76.2729 61.9794 77.2025 60.6019 77.5773 60.0381C78.3057 58.947 80.4207 57.2952 81.9262 59.0659C83.1087 60.4465 81.7647 63.7714 80.0032 66.6636C78.3666 69.3516 75.3129 71.4088 74.7217 71.4728C74.1305 71.5368 75.9834 63.2868 76.2516 62.0769Z" fill="#E7BAEF"/>
</g>
</svg>
